; generated by Slic3r 1.1.7 on 2015-01-23 at 15:14:27

; perimeters extrusion width = 0.50mm
; infill extrusion width = 1.02mm
; solid infill extrusion width = 0.85mm
; top infill extrusion width = 0.85mm

G21 ; set units to millimeters
M107
M104 S205 ; set temperature
G28 ; home all axes
G1 Z5 F5000 ; lift nozzle

M109 S205 ; wait for temperature to be reached
G90 ; use absolute coordinates
G92 E0
M82 ; use absolute distances for extrusion
G1 F1800.000 E-1.00000
G92 E0
G1 Z0.500 F7800.000
G1 X58.190 Y62.456 F7800.000
G1 E1.00000 F1800.000
G1 X59.911 Y61.599 E1.12144 F1080.000
G1 X62.553 Y60.718 E1.29731
G1 X64.587 Y60.365 E1.42767
G1 X67.600 Y60.302 E1.61796
G1 X116.895 Y60.305 E4.73071
G1 X136.253 Y61.521 E5.95548 F1080.000
G1 X137.216 Y61.595 E6.01651
G1 X138.855 Y61.925 E6.12208
G1 X139.226 Y62.047 E6.14674
G1 X141.119 Y63.020 E6.28111
G1 X141.834 Y63.552 E6.33737
G1 X142.005 Y63.687 E6.35112
G1 X143.569 Y65.427 E6.49887
G1 X144.556 Y68.107 E6.67920
G1 X144.728 Y69.291 E6.75475
G1 X144.667 Y71.630 E6.90249
G1 X144.015 Y73.477 E7.02616
G1 X112.966 Y132.851 E11.25712
G1 X111.545 Y134.710 E11.40486
G1 X110.560 Y135.471 E11.48346
G1 X105.828 Y138.366 E11.83376
G1 X103.898 Y139.174 E11.96585
G1 X101.618 Y139.698 E12.11359
G1 X100.098 Y139.614 E12.20974
G1 X97.587 Y139.147 E12.37099
G1 X78.261 Y133.555 E13.64137
G1 X76.488 Y132.939 E13.75994
G1 X73.643 Y131.056 E13.97535
G1 X72.625 Y129.931 E14.07113
G1 X71.793 Y128.799 E14.15987
G1 X57.989 Y105.337 E15.87882
G1 X57.047 Y102.216 E16.08462
G1 X55.210 Y68.513 E18.21603
G1 X55.481 Y66.189 E18.36377
G1 X56.514 Y64.089 E18.51151
G1 X58.136 Y62.509 E18.65452
G1 F1800.000 E17.65452
G92 E0
G1 X103.399 Y129.150 F7800.000
G1 E1.00000 F1800.000
G1 X102.102 Y129.976 E1.09707 F540.000
G1 X100.962 Y130.453 E1.17514
G1 X100.114 Y130.311 E1.22943
G1 X93.231 Y127.598 E1.69658
G1 X84.776 Y125.881 E2.24143
G1 X82.189 Y125.143 E2.41129
G1 X82.177 Y124.617 E2.44451
G1 X83.258 Y124.254 E2.51652
G1 X84.663 Y124.581 E2.60763
G1 X92.347 Y125.561 E3.09681
G1 X99.419 Y128.223 E3.57391
G1 X103.326 Y129.133 E3.82724
G1 F1800.000 E2.82724
G92 E0
G1 X105.455 Y128.899 F7800.000
G1 E1.00000 F1800.000
G1 X102.518 Y130.770 E1.21988 F540.000
G1 X101.069 Y131.376 E1.31905
G1 X99.874 Y131.176 E1.39555
G1 X92.977 Y128.458 E1.86368
G1 X84.564 Y126.749 E2.40577
G1 X80.945 Y125.716 E2.64339
G1 X79.562 Y125.235 E2.73590
G1 X81.910 Y123.765 E2.91087
G1 X83.214 Y123.327 E2.99770
G1 X84.821 Y123.701 E3.10193
G1 X92.564 Y124.689 E3.59483
G1 X99.678 Y127.367 E4.07483
G1 X103.899 Y128.350 E4.34845
G1 X105.384 Y128.874 E4.44793
G1 X106.616 Y128.856 F7800.000
G1 X106.445 Y129.327 E4.47955 F378.000
G1 X102.933 Y131.563 E4.74252
G1 X101.176 Y132.299 E4.86278
G1 X99.634 Y132.041 E4.96150
G1 X92.722 Y129.317 E5.43061
G1 X84.352 Y127.617 E5.96994
G1 X80.676 Y126.568 E6.21134
G1 X79.037 Y125.998 E6.32095
G1 X78.177 Y125.049 E6.40179
G1 X81.526 Y122.952 E6.65128
G1 X83.169 Y122.400 E6.76077
G1 X84.979 Y122.822 E6.87812
G1 X92.781 Y123.817 E7.37474
G1 X99.938 Y126.511 E7.85764
G1 X104.149 Y127.491 E8.13067
G1 X105.727 Y128.049 E8.23633
G1 X106.560 Y128.805 E8.30742
G1 X106.195 Y129.126 F7800.000
G1 X101.349 Y129.317 F7800.000
G1 X101.398 Y129.365 E8.31177 F1080.000
G1 X100.461 Y129.733 E8.37531
G1 X99.649 Y128.921 E8.44786
G1 X98.375 Y128.952 E8.52832
G1 X97.652 Y128.228 E8.59289
G1 X96.222 Y128.103 E8.68354
G1 X95.560 Y127.441 E8.74267
G1 X94.069 Y127.254 E8.83755
G1 X94.018 Y127.203 E8.84210
G1 X93.537 Y126.679 F7800.000
G1 X93.588 Y126.730 E8.84661 F1080.000
G1 X92.370 Y126.783 E8.92355
G1 X91.697 Y126.111 E8.98364
G1 X90.775 Y126.459 E9.04590
G1 X90.241 Y125.925 E9.09365
G1 X89.180 Y126.135 E9.16191
G1 X89.137 Y126.092 E9.16575
G1 F1800.000 E8.16575
G92 E0
G1 X108.746 Y113.240 F7800.000
G1 E1.00000 F1800.000
G1 X107.661 Y113.055 E1.06947 F540.000
G1 X106.187 Y112.434 E1.17048
G1 X106.426 Y111.792 E1.21368
G1 X108.905 Y112.594 E1.37819
G1 X108.764 Y113.167 E1.41541
G1 X88.119 Y106.843 F7800.000
G1 X88.189 Y105.684 E1.48871 F540.000
G1 X91.602 Y107.799 E1.74230
G1 X89.139 Y108.595 E1.90577
G1 X88.584 Y109.986 E2.00031
G1 X87.488 Y106.662 E2.22131
G1 X88.047 Y106.822 E2.25803
G1 X78.040 Y103.224 F7800.000
G1 X77.816 Y103.832 E2.29898 F540.000
G1 X75.911 Y103.332 E2.42333
G1 X68.681 Y102.289 E2.88460
G1 X67.203 Y102.045 E2.97922
G1 X68.952 Y100.858 E3.11272
G1 X72.494 Y100.547 E3.33725
G1 X77.973 Y103.191 E3.72138
G1 X87.295 Y105.677 F7800.000
G1 X87.477 Y102.625 E3.91442 F540.000
G1 X87.399 Y102.093 E3.94841
G1 X88.059 Y101.957 E3.99093
G1 X88.894 Y105.071 E4.19456
G1 X91.638 Y106.771 E4.39836
G1 X95.992 Y108.159 E4.68695
G1 X106.210 Y110.784 E5.35311
G1 X111.595 Y112.526 E5.71049
G1 X112.119 Y112.449 E5.74397
G1 X112.347 Y112.923 E5.77719
G1 X110.680 Y114.475 E5.92106
G1 X107.410 Y113.917 E6.13052
G1 X102.498 Y111.848 E6.46708
G1 X98.172 Y110.393 E6.75528
G1 X92.654 Y108.398 E7.12579
G1 X89.813 Y109.316 E7.31436
G1 X89.191 Y110.874 E7.42028
G1 X88.816 Y111.983 E7.49419
G1 X88.302 Y111.981 E7.52669
G1 X86.980 Y107.972 E7.79321
G1 X81.298 Y105.671 E8.18034
G1 X75.733 Y104.208 E8.54365
G1 X68.545 Y103.171 E9.00228
G1 X66.454 Y102.826 E9.13612
G1 X65.794 Y102.049 E9.20048
G1 X66.400 Y101.510 E9.25172
G1 X68.643 Y99.989 E9.42285
G1 X72.661 Y99.636 E9.67755
G1 X80.452 Y103.397 E10.22387
G1 X83.052 Y104.457 E10.40113
G1 X87.223 Y105.656 E10.67517
G1 F1800.000 E9.67517
G92 E0
G1 X65.744 Y102.597 F7800.000
G1 X63.122 Y99.884 F7800.000
G1 X77.319 Y85.491 F7800.000
G1 X78.361 Y81.726 F7800.000
G1 X82.626 Y85.628 F7800.000
G1 E1.00000 F1800.000
G1 X77.402 Y78.082 E1.57952 F540.000
G1 X71.418 Y71.708 E2.13160
G1 X70.412 Y71.025 E2.20838
G1 X70.672 Y70.472 E2.24693
G1 X71.500 Y70.714 E2.30139
G1 X75.848 Y73.075 E2.61380
G1 X78.932 Y75.875 E2.87685
G1 X81.413 Y79.674 E3.16333
G1 X82.604 Y83.472 E3.41469
G1 X83.176 Y85.362 E3.53940
G1 X82.693 Y85.595 E3.57323
G1 X86.223 Y96.293 F7800.000
G1 X83.011 Y87.753 E4.14931 F540.000
G1 X76.706 Y78.645 E4.84887
G1 X70.835 Y72.391 E5.39052
G1 X66.017 Y69.119 E5.75829
G1 X66.165 Y68.618 E5.79123
G1 X67.417 Y68.592 E5.87034
G1 X71.842 Y69.884 E6.16143
G1 X76.368 Y72.342 E6.48666
G1 X79.617 Y75.291 E6.76374
G1 X82.228 Y79.289 E7.06524
G1 X83.457 Y83.209 E7.32466
G1 X86.411 Y92.967 E7.96843
G1 X86.832 Y95.552 E8.13384
G1 X86.795 Y96.206 E8.17517
G1 X86.297 Y96.281 E8.20698
G1 X86.652 Y99.687 F7800.000
G1 X96.363 Y89.679 F7800.000
G1 X100.722 Y83.584 E8.68019 F540.000
G1 X103.647 Y79.646 E8.98996
G1 X106.668 Y76.413 E9.26936
G1 X115.077 Y69.964 E9.93851
G1 X116.640 Y69.512 E10.04128
G1 X117.877 Y69.672 E10.12004
G1 X122.471 Y70.205 E10.41203
G1 X126.427 Y70.840 E10.66507
G1 X126.443 Y71.432 E10.70246
G1 X122.126 Y72.368 E10.98142
G1 X113.470 Y76.144 E11.57773
G1 X105.854 Y81.908 E12.18085
G1 X96.843 Y90.106 E12.95010
G1 X96.419 Y89.729 E12.98592
G1 X87.388 Y102.012 F7800.000
G1 X86.997 Y99.331 E13.15705 F540.000
G1 X89.856 Y96.692 E13.40274
G1 X92.777 Y93.159 E13.69218
G1 X100.001 Y83.058 E14.47636
G1 X102.961 Y79.073 E14.78982
G1 X106.067 Y75.749 E15.07707
G1 X114.667 Y69.153 E15.76151
G1 X116.571 Y68.602 E15.88664
G1 X117.986 Y68.786 E15.97675
G1 X122.593 Y69.320 E16.26960
G1 X128.257 Y70.230 E16.63186
G1 X133.227 Y69.975 E16.94608
G1 X135.266 Y69.824 E17.07521
G1 X135.347 Y70.502 E17.11834
G1 X133.700 Y70.773 E17.22373
G1 X122.401 Y73.222 E17.95374
G1 X113.924 Y76.920 E18.53777
G1 X106.425 Y82.595 E19.13164
G1 X95.376 Y92.648 E20.07486
G1 X87.436 Y101.955 E20.84740
G1 X86.470 Y104.511 F7800.000
G1 X86.580 Y102.664 E20.96427 F378.000
G1 X85.894 Y97.956 E21.26469
G1 X82.215 Y88.171 E21.92481
G1 X76.010 Y79.207 E22.61321
G1 X70.252 Y73.074 E23.14443
G1 X63.210 Y68.292 E23.68192
G1 X64.821 Y67.754 E23.78917
G1 X67.535 Y67.696 E23.96061
G1 X72.184 Y69.054 E24.26641
G1 X76.889 Y71.608 E24.60447
G1 X80.302 Y74.707 E24.89557
G1 X83.043 Y78.904 E25.21209
G1 X84.310 Y82.946 E25.47958
G1 X87.282 Y92.765 E26.12735
G1 X87.729 Y95.505 E26.30271
G1 X87.612 Y97.548 E26.43190
G1 X89.206 Y96.076 E26.56891
G1 X92.069 Y92.614 E26.85259
G1 X99.279 Y82.532 E27.63529
G1 X102.274 Y78.500 E27.95244
G1 X105.465 Y75.086 E28.24753
G1 X114.258 Y68.342 E28.94726
G1 X116.502 Y67.693 E29.09477
G1 X118.095 Y67.900 E29.19622
G1 X122.715 Y68.436 E29.48992
G1 X128.306 Y69.334 E29.84746
G1 X133.171 Y69.084 E30.15509
G1 X135.724 Y68.895 E30.31675
G1 X136.589 Y68.962 E30.37154
G1 X136.827 Y69.040 E30.38736
G1 X137.267 Y69.366 E30.42191
G1 X137.372 Y70.080 E30.46751
G1 X135.914 Y71.314 E30.58815
G1 X133.867 Y71.650 E30.71912
G1 X122.677 Y74.075 E31.44211
G1 X114.378 Y77.696 E32.01384
G1 X106.996 Y83.283 E32.59846
G1 X96.019 Y93.270 E33.53557
G1 X88.893 Y101.623 E34.22884
G1 X89.665 Y104.499 E34.41688
G1 X92.014 Y105.954 E34.59139
G1 X96.239 Y107.301 E34.87140
G1 X106.459 Y109.927 E35.53767
G1 X111.671 Y111.613 E35.88358
G1 X113.521 Y111.338 E36.00170
G1 X113.786 Y111.579 E36.02431
G1 X113.868 Y112.727 E36.09701
G1 X110.965 Y115.429 E36.34743
G1 X107.158 Y114.780 E36.59128
G1 X102.182 Y112.684 E36.93225
G1 X97.878 Y111.236 E37.21899
G1 X92.638 Y109.341 E37.57085
G1 X90.486 Y110.036 E37.71364
G1 X90.029 Y111.182 E37.79155
G1 X89.422 Y112.978 E37.91124
G1 X90.063 Y118.512 E38.26304
G1 X88.890 Y119.839 E38.37487
G1 X88.502 Y118.774 E38.44648
G1 X87.980 Y113.857 E38.75866
G1 X86.262 Y108.644 E39.10528
G1 X81.016 Y106.520 E39.46268
G1 X75.556 Y105.084 E39.81918
G1 X68.408 Y104.054 E40.27518
G1 X65.985 Y103.653 E40.43026
G1 X64.916 Y102.395 E40.53451
G1 X64.592 Y101.922 E40.57071
G1 X65.851 Y100.804 E40.67707
G1 X68.334 Y99.120 E40.86652
G1 X72.828 Y98.725 E41.15139
G1 X80.815 Y102.581 E41.71146
G1 X83.344 Y103.613 E41.88393
G1 X86.398 Y104.490 E42.08456
G1 X86.966 Y104.578 F7800.000
G1 X88.605 Y108.046 F7800.000
G1 X88.652 Y108.093 E42.08878 F1080.000
G1 X90.073 Y107.613 E42.18349
G1 X90.011 Y107.551 E42.18901
G1 X74.378 Y102.152 F7800.000
G1 X74.437 Y102.211 E42.19427 F1080.000
G1 X72.989 Y102.277 E42.28580
G1 X71.938 Y101.225 E42.37970
G1 X71.221 Y102.022 E42.44736
G1 X70.546 Y101.347 E42.50758
G1 X69.453 Y101.767 E42.58156
G1 X69.409 Y101.724 E42.58541
G1 F1800.000 E41.58541
G92 E0
G1 X65.744 Y102.597 F7800.000
G1 X63.122 Y99.884 F7800.000
G1 X77.319 Y85.491 F7800.000
G1 X78.361 Y81.726 F7800.000
G1 X81.436 Y82.765 F7800.000
G1 E1.00000 F1800.000
G1 X81.342 Y82.671 E1.00839 F1080.000
G1 X81.065 Y80.661 E1.13651
G1 X74.832 Y74.428 E1.69315
G1 X78.142 Y76.005 F7800.000
G1 X78.505 Y76.367 E1.72551 F1080.000
G1 F1800.000 E0.72551
G92 E0
G1 X82.893 Y80.099 F7800.000
G1 X86.285 Y80.889 F7800.000
G1 X108.026 Y69.971 F7800.000
G1 X106.385 Y75.010 F7800.000
G1 X99.650 Y86.705 F7800.000
G1 E1.00000 F1800.000
G1 X99.423 Y86.478 E1.02021 F1080.000
G1 X99.959 Y85.730 E1.07832
G1 X100.322 Y86.093 E1.11076
G1 X100.994 Y85.481 E1.16815
G1 X100.494 Y84.981 E1.21282
G1 X101.029 Y84.233 E1.27093
G1 X101.666 Y84.870 E1.32782
G1 X102.339 Y84.258 E1.38522
G1 X101.572 Y83.492 E1.45367
G1 X102.119 Y82.755 E1.51162
G1 X103.011 Y83.646 E1.59125
G1 X103.683 Y83.035 E1.64864
G1 X102.666 Y82.018 E1.73944
G1 X103.214 Y81.281 E1.79739
G1 X104.355 Y82.423 E1.89935
G1 X105.028 Y81.812 E1.95675
G1 X103.761 Y80.545 E2.06988
G1 X104.332 Y79.832 E2.12756
G1 X105.722 Y81.221 E2.25166
G1 X106.452 Y80.668 E2.30954
G1 X104.952 Y79.168 E2.44352
G1 X105.572 Y78.504 E2.50088
G1 X107.183 Y80.115 E2.64474
G1 X107.914 Y79.562 E2.70262
G1 X106.192 Y77.841 E2.85636
G1 X106.817 Y77.181 E2.91370
G1 X108.645 Y79.009 E3.07693
G1 X109.376 Y78.456 E3.13480
G1 X107.491 Y76.572 E3.30307
G1 X108.218 Y76.015 E3.36089
G1 X110.106 Y77.903 E3.52953
G1 X110.837 Y77.350 E3.58740
G1 X108.945 Y75.457 E3.75642
G1 X109.671 Y74.900 E3.81424
G1 X111.568 Y76.797 E3.98363
G1 X112.299 Y76.244 E4.04151
G1 X110.398 Y74.343 E4.21127
G1 X111.124 Y73.785 E4.26909
G1 X113.030 Y75.691 E4.43923
G1 X113.897 Y75.274 E4.49998
G1 X111.851 Y73.228 E4.68264
G1 X112.578 Y72.671 E4.74047
G1 X114.790 Y74.884 E4.93808
G1 X115.684 Y74.494 E4.99966
G1 X113.304 Y72.114 E5.21221
G1 X114.031 Y71.556 E5.27003
G1 X116.578 Y74.104 E5.49752
G1 X117.472 Y73.714 E5.55911
G1 X114.757 Y70.999 E5.80154
G1 X115.528 Y70.486 E5.86001
G1 X118.366 Y73.324 E6.11344
G1 X119.260 Y72.934 E6.17502
G1 X116.524 Y70.198 E6.41934
G1 X117.918 Y70.308 E6.50765
G1 X120.154 Y72.544 E6.70729
G1 X121.048 Y72.154 E6.76887
G1 X119.371 Y70.477 E6.91866
G1 X120.823 Y70.645 E7.01097
G1 X121.944 Y71.766 E7.11106
G1 X122.275 Y70.813 E7.17474
G1 X122.999 Y71.537 E7.23937
G1 X123.844 Y71.098 E7.29949
G1 X123.799 Y71.053 E7.30348
M106 S118
M104 S200 ; set temperature
G1 F1800.000 E6.30348
G92 E0
G1 Z0.700 F7800.000
G1 X79.234 Y125.272 F7800.000
G1 E1.00000 F1800.000
G1 X81.849 Y123.635 E1.04365 F1800.000
G1 X83.206 Y123.179 E1.06391
G1 X84.846 Y123.561 E1.08774
G1 X92.599 Y124.550 E1.19830
G1 X99.720 Y127.230 E1.30594
G1 X103.939 Y128.212 E1.36722
G1 X105.335 Y128.705 E1.38817
G1 X105.619 Y128.964 E1.39360
G1 X102.584 Y130.896 E1.44451
G1 X101.259 Y131.451 E1.46484
G1 X101.259 Y131.553 E1.46627
G1 X99.836 Y131.314 E1.48668
G1 X92.936 Y128.595 E1.59159
G1 X84.530 Y126.887 E1.71294
G1 X80.902 Y125.853 E1.76631
G1 X79.304 Y125.297 E1.79024
G1 X78.563 Y125.102 F7800.000
G1 X81.633 Y123.180 E1.84150 F1800.000
G1 X83.182 Y122.659 E1.86461
G1 X84.935 Y123.068 E1.89007
G1 X92.720 Y124.061 E2.00110
G1 X99.865 Y126.751 E2.10911
G1 X104.079 Y127.732 E2.17032
G1 X105.596 Y128.267 E2.19308
G1 X106.324 Y128.928 E2.20699
G1 X106.239 Y129.162 E2.21050
G1 X102.816 Y131.341 E2.26790
G1 X101.146 Y132.041 E2.29352
G1 X99.701 Y131.799 E2.31425
G1 X92.794 Y129.076 E2.41928
G1 X84.412 Y127.374 E2.54029
G1 X80.751 Y126.330 E2.59414
G1 X79.179 Y125.783 E2.61769
G1 X78.613 Y125.158 E2.62961
G1 X106.908 Y128.783 F7800.000
G1 X106.652 Y129.492 E2.64027 F1260.000
G1 X103.049 Y131.786 E2.70069
G1 X101.206 Y132.558 E2.72896
G1 X99.567 Y132.283 E2.75247
G1 X92.651 Y129.558 E2.85763
G1 X84.293 Y127.860 E2.97829
G1 X80.601 Y126.806 E3.03261
G1 X78.894 Y126.213 E3.05817
G1 X78.006 Y125.232 E3.07689
G1 X78.102 Y124.801 E3.08315
G1 X81.418 Y122.725 E3.13849
G1 X83.157 Y122.140 E3.16444
G1 X85.024 Y122.575 E3.19156
G1 X92.841 Y123.572 E3.30305
G1 X100.011 Y126.271 E3.41142
G1 X104.219 Y127.251 E3.47256
G1 X105.858 Y127.830 E3.49714
G1 X106.852 Y128.733 E3.51615
G1 X106.487 Y129.053 F7800.000
G1 X104.710 Y128.984 F7800.000
G1 X104.645 Y129.050 E3.51826 F3600.000
G1 X103.857 Y128.662 E3.53832
G1 X101.770 Y130.749 E3.60572
G1 X100.392 Y130.950 E3.63752
G1 X102.907 Y128.435 E3.71874
G1 X101.953 Y128.213 E3.74111
G1 X99.477 Y130.688 E3.82105
G1 X98.634 Y130.356 E3.84176
G1 X100.999 Y127.991 E3.91813
G1 X100.045 Y127.769 E3.94050
G1 X97.790 Y130.023 E4.01331
G1 X96.946 Y129.691 E4.03402
G1 X99.143 Y127.495 E4.10494
G1 X98.288 Y127.173 E4.12579
G1 X96.103 Y129.358 E4.19636
G1 X95.259 Y129.026 E4.21707
G1 X97.434 Y126.851 E4.28729
G1 X96.579 Y126.530 E4.30814
G1 X94.415 Y128.693 E4.37801
G1 X93.572 Y128.361 E4.39872
G1 X95.725 Y126.208 E4.46824
G1 X94.870 Y125.886 E4.48909
G1 X92.675 Y128.082 E4.55999
G1 X91.697 Y127.883 E4.58277
G1 X94.016 Y125.565 E4.65764
G1 X93.161 Y125.243 E4.67849
G1 X90.720 Y127.685 E4.75734
G1 X89.742 Y127.486 E4.78012
G1 X92.266 Y124.962 E4.86165
G1 X91.223 Y124.829 E4.88566
G1 X88.764 Y127.287 E4.96507
G1 X87.787 Y127.089 E4.98785
G1 X90.180 Y124.696 E5.06514
G1 X89.137 Y124.562 E5.08915
G1 X86.809 Y126.890 E5.16433
G1 X85.832 Y126.692 E5.18711
G1 X88.094 Y124.429 E5.26017
G1 X87.051 Y124.296 E5.28418
G1 X84.854 Y126.493 E5.35512
G1 X83.925 Y126.246 E5.37707
G1 X86.008 Y124.163 E5.44433
G1 X84.964 Y124.030 E5.46835
G1 X83.010 Y125.985 E5.53147
G1 X82.095 Y125.724 E5.55320
G1 X83.994 Y123.825 E5.61453
G1 X82.878 Y123.765 E5.64005
G1 X81.179 Y125.463 E5.69489
G1 X80.379 Y125.087 E5.71508
G1 X80.316 Y125.150 E5.71712
G1 F1800.000 E4.71712
G92 E0
G1 X87.163 Y105.491 F7800.000
G1 E1.00000 F1800.000
G1 X87.334 Y102.631 E1.04052 F1800.000
G1 X86.845 Y99.277 E1.08848
G1 X89.752 Y96.593 E1.14445
G1 X92.664 Y93.072 E1.20910
G1 X99.886 Y82.974 E1.38473
G1 X102.851 Y78.981 E1.45509
G1 X105.970 Y75.643 E1.51972
G1 X114.602 Y69.023 E1.67361
G1 X116.560 Y68.457 E1.70245
