; generated by Slic3r 1.1.7 on 2014-12-11 at 16:23:32

; perimeters extrusion width = 0.50mm
; infill extrusion width = 0.52mm
; solid infill extrusion width = 0.52mm
; top infill extrusion width = 0.52mm

G21 ; set units to millimeters
M107
M104 S205 ; set temperature
G28 ; home all axes
G1 Z5 F5000 ; lift nozzle

M109 S205 ; wait for temperature to be reached
G90 ; use absolute coordinates
G92 E0
M82 ; use absolute distances for extrusion
G1 F1800.000 E-1.00000
G92 E0
G1 Z0.500 F7800.000
G1 X39.236 Y46.525 F7800.000
G1 E1.00000 F1800.000
G1 X40.958 Y45.668 E1.12144 F1080.000
G1 X44.920 Y44.346 E1.38524
G1 X46.955 Y43.993 E1.51561
G1 X51.401 Y43.899 E1.79644
G1 X125.126 Y43.897 E6.45187
G1 X154.115 Y45.718 E8.28600
G1 X155.561 Y45.829 E8.37754 F1080.000
G1 X157.200 Y46.159 E8.48311
G1 X157.755 Y46.343 E8.52007
G1 X159.648 Y47.316 E8.65445
G1 X160.616 Y48.034 E8.73055
G1 X160.872 Y48.236 E8.75118
G1 X162.436 Y49.976 E8.89892
G1 X163.424 Y52.656 E9.07925
G1 X163.682 Y54.432 E9.19258
G1 X163.621 Y56.771 E9.34032
G1 X162.969 Y58.618 E9.46399
G1 X116.394 Y147.680 E15.81042
G1 X114.974 Y149.539 E15.95816
G1 X113.989 Y150.300 E16.03676
G1 X107.410 Y154.370 E16.52525
G1 X104.516 Y155.582 E16.72338
G1 X102.236 Y156.106 E16.87112
G1 X100.716 Y156.022 E16.96727
G1 X97.337 Y155.410 E17.18409
G1 X68.524 Y147.078 E19.07805
G1 X65.864 Y146.153 E19.25589
G1 X63.019 Y144.270 E19.47130
G1 X61.492 Y142.584 E19.61497
G1 X60.659 Y141.451 E19.70371
G1 X39.954 Y106.257 E22.28215
G1 X39.012 Y103.137 E22.48794
G1 X36.257 Y52.581 E25.68506
G1 X36.528 Y50.257 E25.83280
G1 X37.560 Y48.158 E25.98054
G1 X39.182 Y46.577 E26.12355
G1 F1800.000 E25.12355
G92 E0
G1 X107.737 Y143.400 F7800.000
G1 E1.00000 F1800.000
G1 X103.685 Y145.980 E1.30331 F540.000
G1 X101.580 Y146.861 E1.44742
G1 X99.864 Y146.574 E1.55729
G1 X89.521 Y142.497 E2.25927
G1 X76.893 Y139.932 E3.07301
G1 X71.477 Y138.387 E3.42861
G1 X69.794 Y137.802 E3.54115
G1 X72.950 Y135.826 E3.77628
G1 X74.830 Y135.194 E3.90154
G1 X77.197 Y135.745 E4.05500
G1 X88.799 Y137.225 E4.79353
G1 X99.460 Y141.239 E5.51290
G1 X105.793 Y142.713 E5.92345
G1 X107.666 Y143.375 E6.04890
G1 X109.220 Y143.513 F7800.000
G1 X104.100 Y146.774 E6.43221 F540.000
G1 X101.687 Y147.784 E6.59742
G1 X99.624 Y147.439 E6.72950
G1 X89.267 Y143.357 E7.43246
G1 X76.681 Y140.800 E8.24344
G1 X71.208 Y139.239 E8.60282
G1 X68.921 Y138.444 E8.75571
G1 X68.257 Y137.711 E8.81814
G1 X72.565 Y135.013 E9.13911
G1 X74.786 Y134.267 E9.28703
G1 X77.355 Y134.866 E9.45361
G1 X89.015 Y136.353 E10.19586
G1 X99.720 Y140.383 E10.91813
G1 X106.043 Y141.855 E11.32810
G1 X108.254 Y142.636 E11.47615
G1 X109.165 Y143.463 E11.55384
G1 X110.216 Y143.211 F7800.000
G1 X109.874 Y144.155 E11.61724 F378.000
G1 X104.515 Y147.568 E12.01840
G1 X101.794 Y148.707 E12.20471
G1 X99.384 Y148.304 E12.35901
G1 X89.012 Y144.216 E13.06295
G1 X76.469 Y141.668 E13.87117
G1 X70.939 Y140.090 E14.23434
G1 X68.413 Y139.212 E14.40322
G1 X67.145 Y137.813 E14.52246
G1 X67.264 Y137.279 E14.55696
G1 X72.181 Y134.201 E14.92327
G1 X74.742 Y133.340 E15.09385
G1 X77.513 Y133.986 E15.27355
G1 X89.232 Y135.481 E16.01953
G1 X99.979 Y139.527 E16.74469
G1 X106.294 Y140.997 E17.15408
G1 X108.721 Y141.854 E17.31661
G1 X110.160 Y143.161 E17.43939
G1 X109.795 Y143.481 F7800.000
G1 F1800.000 E16.43939
G92 E0
G1 X106.236 Y143.535 F7800.000
G1 E1.00000 F1800.000
G1 X106.268 Y143.567 E1.00293 F1080.000
G1 X105.511 Y144.073 E1.06044
G1 X104.492 Y143.054 E1.15144
G1 X104.739 Y144.565 E1.24809
G1 X102.846 Y142.671 E1.41720
G1 X101.199 Y142.288 E1.52395
G1 X103.968 Y145.056 E1.77117
G1 X103.165 Y145.517 E1.82959
G1 X99.553 Y141.905 E2.15220
G1 X97.590 Y141.205 F7800.000
G1 X102.275 Y145.890 E2.57057 F1080.000
G1 X101.300 Y146.178 E2.63477
G1 X95.564 Y140.443 E3.14698
G1 X93.538 Y139.680 F7800.000
G1 X99.689 Y145.831 E3.69626 F1080.000
G1 X97.604 Y145.009 F7800.000
G1 X91.512 Y138.917 E4.24026 F1080.000
G1 X89.487 Y138.155 F7800.000
G1 X95.519 Y144.187 E4.77900 F1080.000
G1 X93.434 Y143.366 F7800.000
G1 X87.799 Y137.730 E5.28225 F1080.000
G1 X86.351 Y137.545 E5.37442
G1 X91.349 Y142.544 E5.82079
G1 X89.369 Y141.827 F7800.000
G1 X84.903 Y137.361 E6.21959 F1080.000
G1 X83.455 Y137.176 E6.31176
G1 X87.784 Y141.505 E6.69830
G1 X86.199 Y141.182 E6.80044
G1 X82.007 Y136.991 E7.17472
G1 X80.559 Y136.807 E7.26689
G1 X84.613 Y140.860 E7.62891
G1 X83.028 Y140.538 E7.73105
G1 X79.112 Y136.622 E8.08081
G1 X77.664 Y136.437 E8.17298
G1 X81.443 Y140.216 E8.51047
G1 X79.858 Y139.894 E8.61261
G1 X76.096 Y136.133 E8.94852
G1 X74.625 Y135.925 E9.04236
G1 X78.272 Y139.572 E9.36811
G1 X76.647 Y139.210 E9.47330
G1 X73.679 Y136.242 E9.73829
G1 X72.820 Y136.647 E9.79823
G1 X74.879 Y138.706 E9.98208
G1 X73.112 Y138.202 E10.09813
G1 X72.044 Y137.133 E10.19353
G1 X71.314 Y137.667 E10.25061
G1 X71.281 Y137.634 E10.25351
G1 F1800.000 E9.25351
G92 E0
G1 X81.124 Y108.772 F7800.000
G1 E1.00000 F1800.000
G1 X81.413 Y103.930 E1.30632 F540.000
G1 X81.361 Y103.578 E1.32879
G1 X82.021 Y103.442 E1.37131
G1 X83.172 Y107.733 E1.65189
G1 X87.374 Y110.336 E1.96403
G1 X93.934 Y112.428 E2.39881
G1 X109.260 Y116.365 E3.39802
G1 X117.376 Y118.991 E3.93661
G1 X118.021 Y118.895 E3.97781
G1 X118.249 Y119.369 E4.01103
G1 X115.957 Y121.503 E4.20878
G1 X111.189 Y120.694 E4.51413
G1 X103.817 Y117.588 E5.01931
G1 X97.323 Y115.405 E5.45193
G1 X88.985 Y112.389 E6.01180
G1 X84.571 Y113.815 E6.30472
G1 X83.602 Y116.243 E6.46977
G1 X83.096 Y117.739 E6.56948
G1 X82.582 Y117.737 E6.60197
G1 X80.629 Y111.810 E6.99601
G1 X72.009 Y108.320 E7.58323
G1 X63.639 Y106.119 E8.12970
G1 X52.847 Y104.563 E8.81823
G1 X49.783 Y104.056 E9.01431
G1 X48.964 Y103.093 E9.09417
G1 X49.721 Y102.421 E9.15809
G1 X53.033 Y100.174 E9.41076
G1 X58.955 Y99.654 E9.78618
G1 X70.599 Y105.275 E10.60263
G1 X74.513 Y106.872 E10.86957
G1 X81.051 Y108.751 E11.29915
G1 X79.437 Y94.156 F7800.000
G1 X74.693 Y81.538 E12.15035 F540.000
G1 X65.212 Y67.843 E13.20214
G1 X56.380 Y58.436 E14.01691
G1 X49.289 Y53.620 E14.55817
G1 X49.437 Y53.120 E14.59112
G1 X51.100 Y53.085 E14.69611
G1 X57.688 Y55.009 E15.12951
G1 X64.438 Y58.674 E15.61453
G1 X69.275 Y63.065 E16.02707
G1 X73.162 Y69.018 E16.47602
G1 X74.997 Y74.872 E16.86338
G1 X79.425 Y89.495 E17.82814
G1 X80.051 Y93.339 E18.07408
G1 X80.009 Y94.069 E18.12025
G1 X79.511 Y94.144 E18.15206
G1 X81.213 Y102.561 F7800.000
G1 X80.704 Y99.070 E18.37485 F540.000
G1 X84.927 Y95.173 E18.73769
G1 X89.321 Y89.859 E19.17313
G1 X100.160 Y74.703 E20.34972
G1 X104.592 Y68.735 E20.81910
G1 X109.232 Y63.770 E21.24824
G1 X122.091 Y53.907 E22.27154
G1 X124.872 Y53.103 E22.45432
G1 X126.955 Y53.374 E22.58699
G1 X133.863 Y54.175 E23.02607
G1 X142.375 Y55.543 E23.57050
G1 X149.853 Y55.158 E24.04329
G1 X152.345 Y54.974 E24.20109
G1 X152.425 Y55.652 E24.24423
G1 X150.513 Y55.966 E24.36660
G1 X133.542 Y59.645 E25.46316
G1 X120.786 Y65.209 E26.34190
G1 X109.512 Y73.742 E27.23474
G1 X92.923 Y88.834 E28.65093
G1 X81.262 Y102.504 E29.78552
G1 X80.685 Y97.873 F7800.000
G1 X84.277 Y94.558 E30.09421 F540.000
G1 X88.613 Y89.314 E30.52388
G1 X99.439 Y74.177 E31.69900
G1 X103.906 Y68.162 E32.17207
G1 X108.630 Y63.106 E32.60905
G1 X121.681 Y53.097 E33.64764
G1 X124.803 Y52.194 E33.85279
G1 X127.064 Y52.488 E33.99681
G1 X133.985 Y53.290 E34.43674
G1 X142.424 Y54.646 E34.97645
G1 X149.797 Y54.267 E35.44265
G1 X153.585 Y53.987 E35.68253
G1 X154.756 Y54.077 E35.75669
G1 X154.943 Y54.139 E35.76912
G1 X155.303 Y54.401 E35.79722
G1 X155.370 Y54.860 E35.82653
G1 X153.591 Y56.366 E35.97370
G1 X150.680 Y56.844 E36.15997
G1 X133.817 Y60.498 E37.24951
G1 X121.240 Y65.985 E38.11595
G1 X110.083 Y74.429 E38.99954
G1 X93.565 Y89.457 E40.40962
G1 X82.632 Y102.274 E41.47342
G1 X83.943 Y107.160 E41.79289
G1 X87.750 Y109.519 E42.07574
G1 X94.181 Y111.570 E42.50194
G1 X109.509 Y115.507 E43.50127
G1 X117.451 Y118.077 E44.02839
G1 X120.058 Y117.690 E44.19477
G1 X120.139 Y118.830 E44.26691
G1 X116.242 Y122.457 E44.60307
G1 X110.919 Y121.549 E44.94408
G1 X103.501 Y118.424 E45.45236
G1 X97.029 Y116.247 E45.88353
G1 X88.969 Y113.332 E46.42474
G1 X85.244 Y114.536 E46.67188
G1 X84.440 Y116.551 E46.80892
G1 X83.478 Y119.398 E46.99865
G1 X84.423 Y127.558 E47.51735
G1 X83.452 Y128.657 E47.60996
G1 X82.602 Y120.650 E48.11836
G1 X79.910 Y112.482 E48.66142
G1 X71.727 Y109.169 E49.21892
G1 X63.462 Y106.995 E49.75858
G1 X52.710 Y105.445 E50.44448
G1 X49.315 Y104.884 E50.66180
G1 X47.718 Y103.005 E50.81748
G1 X49.172 Y101.715 E50.94024
G1 X52.723 Y99.305 E51.21122
G1 X59.122 Y98.743 E51.61681
G1 X70.962 Y104.459 E52.44702
G1 X74.806 Y106.027 E52.70917
G1 X80.299 Y107.606 E53.07007
G1 X80.516 Y103.968 E53.30022
G1 X79.467 Y96.772 E53.75939
G1 X73.896 Y81.956 E54.75895
G1 X64.516 Y68.406 E55.79959
G1 X55.797 Y59.119 E56.60393
G1 X46.251 Y52.636 E57.33259
G1 X47.343 Y52.272 E57.40526
G1 X51.218 Y52.189 E57.65002
G1 X58.030 Y54.179 E58.09813
G1 X64.959 Y57.940 E58.59599
G1 X69.960 Y62.481 E59.02254
G1 X73.977 Y68.633 E59.48651
G1 X75.851 Y74.609 E59.88194
G1 X80.296 Y89.292 E60.85071
G1 X80.948 Y93.292 E61.10659
G1 X80.689 Y97.798 E61.39163
G1 X81.703 Y95.719 F7800.000
G1 X83.627 Y93.942 E61.55701 F378.000
G1 X87.905 Y88.769 E61.98091
G1 X98.717 Y73.651 E63.15455
G1 X103.219 Y67.590 E63.63131
G1 X108.029 Y62.443 E64.07613
G1 X121.272 Y52.286 E65.13002
G1 X124.733 Y51.285 E65.35754
G1 X127.173 Y51.602 E65.51291
G1 X134.107 Y52.406 E65.95369
G1 X142.472 Y53.750 E66.48867
G1 X149.741 Y53.376 E66.94828
G1 X153.587 Y53.092 E67.19178
G1 X154.934 Y53.196 E67.27708
G1 X155.356 Y53.336 E67.30521
G1 X156.135 Y53.913 E67.36641
G1 X156.326 Y55.221 E67.44993
G1 X153.979 Y57.207 E67.64402
G1 X150.847 Y57.721 E67.84445
G1 X134.093 Y61.352 E68.92695
G1 X121.695 Y66.761 E69.78111
G1 X110.654 Y75.117 E70.65545
G1 X94.208 Y90.079 E72.05941
G1 X83.616 Y102.496 E73.09000
G1 X84.713 Y106.588 E73.35751
G1 X88.127 Y108.703 E73.61107
G1 X94.428 Y110.711 E74.02868
G1 X109.758 Y114.650 E75.02813
G1 X117.527 Y117.163 E75.54378
G1 X120.362 Y116.742 E75.72474
G1 X120.922 Y117.250 E75.77246
G1 X121.059 Y119.192 E75.89539
G1 X116.527 Y123.411 E76.28638
G1 X110.667 Y122.412 E76.66177
G1 X103.185 Y119.259 E77.17446
G1 X96.735 Y117.090 E77.60417
G1 X88.952 Y114.276 E78.12673
G1 X85.918 Y115.256 E78.32809
G1 X85.278 Y116.860 E78.43711
G1 X84.388 Y119.494 E78.61268
G1 X85.356 Y127.851 E79.14390
G1 X83.244 Y130.239 E79.34521
G1 X82.508 Y128.217 E79.48110
G1 X81.725 Y120.839 E79.94962
G1 X79.192 Y113.155 E80.46054
G1 X71.445 Y110.017 E80.98833
G1 X63.284 Y107.872 E81.52117
G1 X52.574 Y106.328 E82.20444
G1 X48.847 Y105.711 E82.44299
G1 X47.175 Y103.745 E82.60597
G1 X46.556 Y102.843 E82.67502
G1 X48.623 Y101.008 E82.84952
G1 X52.414 Y98.436 E83.13882
G1 X59.289 Y97.832 E83.57458
G1 X71.325 Y103.643 E84.41854
G1 X75.099 Y105.182 E84.67590
G1 X79.474 Y106.440 E84.96339
G1 X79.619 Y104.006 E85.11737
G1 X78.598 Y96.996 E85.56468
G1 X73.099 Y82.373 E86.55119
G1 X63.819 Y68.968 E87.58067
G1 X55.214 Y59.802 E88.37460
G1 X44.256 Y52.360 E89.21100
G1 X47.188 Y51.382 E89.40618
G1 X51.336 Y51.294 E89.66816
G1 X58.372 Y53.348 E90.13098
G1 X65.479 Y57.207 E90.64166
G1 X70.645 Y61.897 E91.08224
G1 X74.792 Y68.249 E91.56122
G1 X76.704 Y74.346 E91.96472
G1 X81.168 Y89.090 E92.93751
G1 X81.845 Y93.245 E93.20332
G1 X81.707 Y95.644 E93.35504
G1 X81.933 Y96.163 F7800.000
G1 F1800.000 E92.35504
G92 E0
G1 X92.473 Y112.952 F7800.000
G1 E1.00000 F1800.000
G1 X92.522 Y113.001 E1.00438 F1080.000
G1 X93.862 Y113.057 E1.08908
G1 X94.534 Y113.729 E1.14910
G1 X95.590 Y113.501 E1.21735
G1 X96.546 Y114.457 E1.30270
G1 X97.319 Y113.945 E1.36123
G1 X98.519 Y115.145 E1.46840
G1 X99.048 Y114.389 E1.52665
G1 X100.454 Y115.796 E1.65229
G1 X100.776 Y114.833 E1.71639
G1 X102.390 Y116.447 E1.86048
G1 X102.505 Y115.277 E1.93469
G1 X104.367 Y117.140 E2.10100
G1 X104.233 Y115.721 E2.19096
G1 X106.587 Y118.075 E2.40113
G1 X108.807 Y119.010 F7800.000
G1 X105.962 Y116.165 E2.65515 F1080.000
G1 X107.691 Y116.610 E2.76785
G1 X111.026 Y119.945 E3.06573
G1 X112.676 Y120.310 E3.17241
G1 X109.452 Y117.086 E3.46030
G1 X111.351 Y117.701 E3.58632
G1 X114.223 Y120.572 E3.84276
G1 X115.762 Y120.827 F7800.000
G1 X113.250 Y118.315 E4.06711 F1080.000
G1 X115.148 Y118.929 F7800.000
G1 X116.427 Y120.208 E4.18131 F1080.000
G1 X117.078 Y119.575 E4.23867
G1 X117.047 Y119.544 E4.24144
G1 X88.879 Y111.474 F7800.000
G1 X88.930 Y111.525 E4.24598 F1080.000
G1 X88.130 Y112.006 E4.30491
G1 X86.911 Y110.787 E4.41378
G1 X87.162 Y112.319 E4.51179
G1 X81.857 Y107.014 E4.98554
G1 X81.785 Y108.223 E5.06199
G1 X86.194 Y112.632 E5.45573
G1 X85.226 Y112.944 E5.51997
G1 X81.712 Y109.431 E5.83370
G1 X80.144 Y109.143 E5.93444
G1 X84.258 Y113.257 E6.30184
G1 X83.793 Y114.073 E6.36113
G1 X78.346 Y108.626 E6.84752
G1 X78.854 Y110.415 E6.96492
G1 X76.549 Y108.110 E7.17078
G1 X76.702 Y109.543 E7.26182
G1 X74.751 Y107.593 E7.43599
G1 X74.549 Y108.672 E7.50529
G1 X72.678 Y106.801 E7.67236
G1 X72.397 Y107.800 E7.73792
G1 X70.515 Y105.919 E7.90594
G1 X70.623 Y107.307 E7.99385
G1 X68.064 Y104.748 E8.22234
G1 X67.148 Y106.393 F7800.000
G1 X63.112 Y102.357 E8.58274 F1080.000
G1 X60.636 Y101.162 F7800.000
G1 X65.410 Y105.936 E9.00909 F1080.000
G1 X65.588 Y103.553 F7800.000
G1 X68.885 Y106.850 E9.30354 F1080.000
G1 X58.515 Y100.322 F7800.000
G1 X63.685 Y105.492 E9.76520 F1080.000
G1 X62.189 Y105.276 E9.86068
G1 X57.338 Y100.426 E10.29384
G1 X56.161 Y100.529 E10.36847
G1 X60.692 Y105.060 E10.77313
G1 X59.196 Y104.845 E10.86861
G1 X54.983 Y100.632 E11.24476
G1 X53.806 Y100.736 E11.31939
G1 X57.699 Y104.629 E11.66705
G1 X56.203 Y104.413 E11.76252
G1 X52.847 Y101.058 E12.06215
G1 X52.084 Y101.576 E12.12038
G1 X54.706 Y104.197 E12.35451
G1 X53.210 Y103.982 E12.44998
G1 X51.321 Y102.093 E12.61861
G1 X50.558 Y102.611 E12.67684
G1 X51.682 Y103.735 E12.77718
G1 X50.147 Y103.481 E12.87539
G1 X49.948 Y103.282 E12.89318
G1 X75.596 Y105.846 F7800.000
G1 X81.800 Y113.361 F7800.000
G1 X83.427 Y114.988 E13.03848 F1080.000
G1 X83.062 Y115.903 E13.10072
G1 X82.430 Y115.271 E13.15716
G1 X78.582 Y90.017 F7800.000
G1 X78.532 Y89.966 E13.16167 F1080.000
G1 X78.519 Y88.667 E13.24374
G1 X77.756 Y87.904 E13.31181
G1 X77.960 Y86.821 E13.38139
G1 X76.981 Y85.843 E13.46880
G1 X77.401 Y84.976 E13.52960
G1 X76.206 Y83.781 E13.63636
G1 X76.843 Y83.131 E13.69380
G1 X75.431 Y81.719 E13.81991
G1 X76.284 Y81.286 E13.88035
G1 X73.024 Y78.026 E14.17151
G1 X70.130 Y73.845 F7800.000
G1 X75.725 Y79.441 E14.67121 F1080.000
G1 X75.167 Y77.596 E14.79294
G1 X67.236 Y69.665 E15.50119
G1 X71.268 Y67.265 F7800.000
G1 X62.146 Y58.143 E16.31577 F1080.000
G1 X59.332 Y56.615 F7800.000
G1 X72.856 Y70.139 E17.52353 F1080.000
G1 X73.444 Y72.014 E17.64755
G1 X56.847 Y55.416 E19.12969
G1 X55.030 Y54.886 E19.24923
G1 X74.032 Y73.888 E20.94611
G1 X74.608 Y75.751 E21.06927
G1 X53.213 Y54.355 E22.97993
G1 X52.854 Y55.283 E23.04275
G1 X51.395 Y53.824 E23.17302
G1 X68.485 Y63.195 F7800.000
G1 X68.847 Y63.557 E23.20538 F1080.000
G1 X81.662 Y101.069 F7800.000
G1 X81.624 Y101.031 E23.20876 F1080.000
G1 X81.407 Y99.543 E23.30370
G1 X82.247 Y100.383 E23.37869
G1 X82.832 Y99.697 E23.43562
G1 X81.928 Y98.794 E23.51631
G1 X82.589 Y98.184 E23.57311
G1 X83.417 Y99.011 E23.64703
G1 X84.002 Y98.326 E23.70395
G1 X83.250 Y97.574 E23.77110
G1 X83.911 Y96.964 E23.82790
G1 X84.587 Y97.640 E23.88828
G1 X85.172 Y96.954 E23.94520
G1 X84.572 Y96.354 E23.99881
G1 X85.233 Y95.744 E24.05561
G1 X85.757 Y96.268 E24.10244
G1 X86.342 Y95.582 E24.15937
G1 X85.828 Y95.067 E24.20534
G1 X86.403 Y94.372 E24.26235
G1 X86.928 Y94.896 E24.30920
G1 X87.513 Y94.210 E24.36612
G1 X86.978 Y93.676 E24.41385
G1 X87.553 Y92.980 E24.47085
G1 X88.098 Y93.524 E24.51945
G1 X88.683 Y92.839 E24.57638
G1 X88.129 Y92.285 E24.62585
G1 X88.704 Y91.589 E24.68286
G1 X89.268 Y92.153 E24.73321
G1 X89.853 Y91.467 E24.79013
G1 X89.279 Y90.893 E24.84136
G1 X89.852 Y90.195 E24.89839
G1 X90.438 Y90.781 E24.95074
G1 X91.023 Y90.095 E25.00767
G1 X90.382 Y89.454 E25.06495
G1 X90.912 Y88.713 E25.12247
G1 X91.608 Y89.409 E25.18467
G1 X92.193 Y88.723 E25.24160
G1 X91.442 Y87.972 E25.30873
G1 X91.971 Y87.231 E25.36625
G1 X92.820 Y88.080 E25.44207
